X: 47
T: O Panie, który nie masz nic równego sobie,
C: Mikołaj Gomółka
%%abc-version 2.0
%%abcx-abcm2ps-target-version 5.9.1 (29 Sep 2008)
%%abc-creator hum2abc beta
%%abcx-conversion-date 2021/10/04 07:59:09
%%abc-edited-by Marta Lawrence
%%abcx-initial-encoding-date 2020-02-10
%%humdrum-veritas 1439847868
%%humdrum-veritas-data 117169423
%%linebreak <none>
%%barnumbers 0
L: 1/4
M: C|
N: Derived from pl-wn--sd-xvi-qu-273--048_gomolka-mikolaj--o-panie-ktory-nie-masz-nic-rownego-sobie.krn
%%staves [1 2 3 4]
V: 1 clef=treble
V: 2
V: 3 clef=alto
V: 4
K: C
[V:1] e4e4 [|] 
[V:2] G4G4 [|] 
[V:3] C4C4 [|] 
[V:4] C,4C,D,E,F, [|] 
[V:1] d2zde2dc [|] 
[V:2] G2zGG2F2 [|] 
[V:3] B,2zB,C2A,2 [|] 
[V:4] G,2zG,C,2D,2 [|] 
[V:1] B2e2>d2c4 [|] 
[V:2] G2G4A4 [|] 
[V:3] G,4C4 [|] 
[V:4] G,,2C,4F,4 [|] 
[V:1] BAB2c4 [|] 
[V:2] A2G4 [|] 
[V:3] F2>E2D2C2 [|] 
[V:4] F,2G,2E,2 [|] 
[V:1] B2c2e2 [|] 
[V:2] F2D2E2c2 [|] 
[V:3] D4C2C2 [|] 
[V:4] F,2G,2C,2C,2 [|] 
[V:1] c2c2d3c [|] 
[V:2] A2A2A4 [|] 
[V:3] C2C2F3E [|] 
[V:4] F,2F,2D,2D2 [|] 
[V:1] def2e4 [|] 
[V:2] B2A2A2G2 [|] 
[V:3] D2C2>D2EF [|] 
[V:4] _B,2F,G,A,=B,C2 [|] 
[V:1] e2d2c4 [|] 
[V:2] c2B2AG2F [|] 
[V:3] G2>F2E2C2 [|] 
[V:4] C,2G,2A,4 [|] 
[V:1] B2g2e2e2 [|] 
[V:2] G2B2c2c2 [|] 
[V:3] D2D2E2E2 [|] 
[V:4] G,2G,2C2C2 [|] 
[V:1] f2>f2f4 [|] 
[V:2] c2>c2c4 [|] 
[V:3] A2>A2A4 [|] 
[V:4] F,2>F,2F,4 [|] 
[V:1] e2d2B2e3 [|] 
[V:2] c2B2G3F [|] 
[V:3] G2D2D2ED [|] 
[V:4] C,2G,4E,2 [|] 
[V:1] dcBc4 [|] 
[V:2] E2A2A2A2 [|] 
[V:3] CB,C2F3E [|] 
[V:4] A,2>G,2F,2F,2 [|] 
[V:1] B2G2c2B2 [|] 
[V:2] G4G2G3 [|] 
[V:3] D2D2E2D2 [|] 
[V:4] G,4z2G,2 [|] 
[V:1] c2>d2e2e2 [|] 
[V:2] AB2A2G2 [|] 
[V:3] EFGFEDE2 [|] 
[V:4] C2=B,2C3B, [|] 
[V:1] c2d2>c2c4 [|] 
[V:2] cBAG2<A2G [|] 
[V:3] E2F2F3E [|] 
[V:4] A,G,F,E,D,2E,2 [|] 
[V:1] B2c32 |]  
[V:2] FE/F/EDE32 |]  
[V:3] DCD2C32 |]  
[V:4] F,2G,2C,32 |]  


